projects/vfh1/img/icons/house.svg

<svg viewBox="0 0 49 45" fill="none" xmlns="http://www.w3.org/2000/svg">
<path d="M36.5791 37.2614C38.2449 37.2767 39.8924 36.9579 41.418 36.3292L36.5652 43.5285L31.7434 36.2335C33.2608 36.8947 34.9074 37.2461 36.5791 37.2614Z" fill="#42474D" stroke="#42474D" stroke-width="0.523561"/>
<path d="M15 40H34" stroke="#42474D" stroke-width="1.57068" stroke-linejoin="round"/>
<path d="M29 13.6531L21.3671 7L7 19.5145V30" stroke="#42474D" stroke-width="1.57068" stroke-linejoin="round"/>
<path d="M27 29.6445V40H15V25H24.924" stroke="#42474D" stroke-width="1.57068" stroke-linejoin="round"/>
<path d="M15 40V36.0563C15 35.4817 14.7773 34.9305 14.3808 34.5241C13.9844 34.1178 13.4467 33.8895 12.886 33.8895H10.772C10.7727 33.3785 10.675 32.8724 10.4846 32.4002C10.2941 31.928 10.0146 31.4989 9.66212 31.1376C9.30962 30.7763 8.89102 30.4898 8.43032 30.2946C7.96962 30.0994 7.47587 29.9993 6.97736 30H4.60966C3.65232 30 2.7342 30.3898 2.05725 31.0837C1.38031 31.7775 1 32.7186 1 33.6999V40H15Z" stroke="#42474D" stroke-width="1.57068" stroke-linejoin="round"/>
<path d="M34 11.3535L22.9596 1.62075C22.5016 1.22009 21.9192 1 21.3172 1C20.7152 1 20.1329 1.22009 19.6749 1.62075L12.3462 8.0768V3.2645H7.4218V12.4241L1 18.0745L4.28472 22L21.3199 7.00079L29.1599 13.884" stroke="#42474D" stroke-width="1.57068" stroke-linejoin="round"/>
<path d="M27 29L36.5877 44L46 29.5712" stroke="#42474D" stroke-width="1.57068" stroke-linejoin="round"/>
<path d="M36.5 34C42.8513 34 48 28.8513 48 22.5C48 16.1487 42.8513 11 36.5 11C30.1487 11 25 16.1487 25 22.5C25 28.8513 30.1487 34 36.5 34Z" stroke="#42474D" stroke-width="1.57068" stroke-linejoin="round"/>
<mask id="path-9-inside-1_194_200" fill="white">
<path d="M42 20C42.0636 20.3294 42.1143 20.6632 42.1518 21C42.1149 20.6631 42.0642 20.3292 42 20Z"/>
</mask>
<path d="M42 20C42.0636 20.3294 42.1143 20.6632 42.1518 21C42.1149 20.6631 42.0642 20.3292 42 20Z" fill="#70B9D6"/>
<path d="M42.1518 21L41.6315 21.0579L42.6723 20.9429L42.1518 21ZM41.4859 20.0993C41.5469 20.4149 41.5955 20.7349 41.6315 21.0579L42.6722 20.9421C42.6332 20.5915 42.5804 20.2439 42.5141 19.9007L41.4859 20.0993ZM42.6723 20.9429C42.6337 20.5917 42.5809 20.2435 42.5139 19.8998L41.4861 20.1002C41.5475 20.415 41.596 20.7345 41.6314 21.0571L42.6723 20.9429Z" fill="#42474D" mask="url(#path-9-inside-1_194_200)"/>
<mask id="path-11-inside-2_194_200" fill="white">
<path d="M43 21C43.0334 21.3317 43.0509 21.6656 43.0524 22C43.0509 21.6656 43.0334 21.3317 43 21Z"/>
</mask>
<path d="M43 21C43.0334 21.3317 43.0509 21.6656 43.0524 22C43.0509 21.6656 43.0334 21.3317 43 21Z" fill="#70B9D6"/>
<path d="M42.4791 21.0525C42.5108 21.3674 42.5274 21.6846 42.5288 22.0023L43.5759 21.9977C43.5744 21.6466 43.556 21.2959 43.5209 20.9475L42.4791 21.0525ZM43.5759 21.9977C43.5744 21.6466 43.556 21.2959 43.5209 20.9475L42.4791 21.0525C42.5108 21.3674 42.5274 21.6846 42.5288 22.0023L43.5759 21.9977Z" fill="#42474D" mask="url(#path-11-inside-2_194_200)"/>
<mask id="path-13-inside-3_194_200" fill="white">
<path d="M30 21C30.035 20.6626 30.0857 20.3286 30.1518 20C30.0852 20.3284 30.0345 20.6625 30 21Z"/>
</mask>
<path d="M30 21C30.035 20.6626 30.0857 20.3286 30.1518 20C30.0852 20.3284 30.0345 20.6625 30 21Z" fill="#70B9D6"/>
<path d="M30 21L29.4791 20.9468L30.5208 21.054L30 21ZM30.1518 20L30.6651 20.1033L29.6387 19.8959L30.1518 20ZM30.5208 21.054C30.5541 20.7329 30.6023 20.4154 30.6651 20.1033L29.6386 19.8967C29.5691 20.2418 29.5159 20.5923 29.4792 20.946L30.5208 21.054ZM29.6387 19.8959C29.5686 20.2414 29.5153 20.5924 29.4791 20.9468L30.5209 21.0532C30.5536 20.7325 30.6017 20.4155 30.6649 20.1041L29.6387 19.8959Z" fill="#42474D" mask="url(#path-13-inside-3_194_200)"/>
<mask id="path-15-inside-4_194_200" fill="white">
<path d="M30 22C30.0006 21.6654 30.0198 21.3312 30.0576 21C30.0198 21.3312 30.0006 21.6654 30 22Z"/>
</mask>
<path d="M30 22C30.0006 21.6654 30.0198 21.3312 30.0576 21C30.0198 21.3312 30.0006 21.6654 30 22Z" fill="#70B9D6"/>
<path d="M30.5236 22.0009C30.5241 21.6857 30.5422 21.3711 30.5778 21.0594L29.5374 20.9406C29.4974 21.2913 29.477 21.645 29.4764 21.9991L30.5236 22.0009ZM29.5374 20.9406C29.4974 21.2913 29.477 21.645 29.4764 21.9991L30.5236 22.0009C30.5241 21.6857 30.5422 21.3711 30.5778 21.0594L29.5374 20.9406Z" fill="#42474D" mask="url(#path-15-inside-4_194_200)"/>
<path d="M42.3367 22.1769C42.5329 18.5924 40.0098 15.5373 36.7012 15.353C33.3926 15.1688 30.5515 17.9252 30.3553 21.5097C30.1591 25.0942 32.6821 28.1494 35.9907 28.3336C39.2993 28.5178 42.1405 25.7614 42.3367 22.1769Z" stroke="#42474D" stroke-width="1.57068" stroke-linejoin="round"/>
</svg>

<svg viewBox="0 0 49 45" fill="none" xmlns="http://www.w3.org/2000/svg"><path d="M36.58 37.261a12.409 12.409 0 004.838-.932l-4.853 7.2-4.822-7.296a12.396 12.396 0 004.836 1.028z" fill="#42474D" stroke="#42474D" stroke-width=".524"/><path d="M15 40h19m-5-26.347L21.367 7 7 19.515V30m20-.355V40H15V25h9.924" stroke="#42474D" stroke-width="1.571" stroke-linejoin="round"/><path d="M15 40v-3.944c0-.574-.223-1.125-.62-1.532a2.088 2.088 0 00-1.494-.635h-2.114a3.97 3.97 0 00-.287-1.489 3.893 3.893 0 00-.823-1.262 3.785 3.785 0 00-1.232-.843A3.71 3.71 0 006.977 30H4.61c-.958 0-1.876.39-2.553 1.084A3.747 3.747 0 001 33.7V40h14zm19-28.646L22.96 1.62c-.458-.4-1.04-.62-1.643-.62-.602 0-1.184.22-1.642.62l-7.329 6.457V3.264H7.422v9.16L1 18.074 4.285 22 21.32 7l7.84 6.884M27 29l9.588 15L46 29.571" stroke="#42474D" stroke-width="1.571" stroke-linejoin="round"/><path d="M36.5 34C42.851 34 48 28.851 48 22.5S42.851 11 36.5 11 25 16.149 25 22.5 30.149 34 36.5 34z" stroke="#42474D" stroke-width="1.571" stroke-linejoin="round"/><path d="M42.152 21l-.52.058 1.04-.115-.52.057zm-.666-.9c.06.315.11.635.146.958l1.04-.116c-.039-.35-.092-.698-.158-1.041l-1.028.198zm1.186.843a12.71 12.71 0 00-.158-1.043l-1.028.2c.062.315.11.634.145.957l1.041-.114z" fill="#42474D" mask="url(#a)"/><path d="M42.48 21.052c.03.315.047.633.049.95l1.047-.004c-.002-.351-.02-.702-.055-1.05l-1.042.104zm1.096.946c-.002-.351-.02-.702-.055-1.05l-1.042.104c.032.315.048.633.05.95l1.047-.004z" fill="#42474D" mask="url(#b)"/><path d="M30 21l-.52-.053 1.04.107L30 21zm.152-1l.513.103-1.026-.207.513.104zm.369 1.054c.033-.321.081-.639.144-.95l-1.026-.207c-.07.345-.123.695-.16 1.049l1.042.108zm-.882-1.158c-.07.345-.124.696-.16 1.05l1.042.107c.033-.32.08-.637.144-.949l-1.026-.208z" fill="#42474D" mask="url(#c)"/><path d="M30.524 22c0-.314.018-.629.054-.94l-1.04-.12c-.04.351-.061.705-.062 1.06h1.048zm-.987-1.06c-.04.351-.06.705-.06 1.06h1.047c0-.314.018-.629.054-.94l-1.04-.12z" fill="#42474D" mask="url(#d)"/><path d="M42.337 22.177c.196-3.585-2.327-6.64-5.636-6.824-3.308-.184-6.15 2.572-6.346 6.157-.196 3.584 2.327 6.64 5.636 6.824 3.308.184 6.15-2.573 6.346-6.157z" stroke="#42474D" stroke-width="1.571" stroke-linejoin="round"/></svg>
